X: 10254
T: Doctor MacInnes' Fancy
R: reel
M: 4/4
K: Amixolydian
|:eG|A2 BG A2 eG|ABAG A2 Bd|e2 de efgf|edBA G2 eG|
A2 BG A2 eG|ABAG A2 Bd|edde efgd|B2 A2 A2:|
|:Bd|e2 ag aeea|gedB d2 Bd|eA (3AAA aA (3AAA|edBA G2 Bd|
eaag aeea|gedB d2 Bd|edde efgd|B2 A2 A2:|
|:e2|A2 AA GAAB|Aeed e2 dB|A2 AA GAAB|edBA G2 e2|
AAAB GAAB|Aeed e2 Bd|edde efgd|B2 A2 A2:|
ag|aeef g2 ag|fage d2 Bd|e2 de efgf|edBA G2 ag|
aeef g2 ag|fage d2 Bd|edde efgd|B2 A2 A2 ag|
aeef g2 ag|fage d2 Bd|e2 de efgf|edBA G2 e2|
AAAB GAAB|Aeed e2 Bd|edde efgd|B2 A2 A2 z2|

